fs/slide_search_20_filled.svg

<svg viewBox="0 0 20 20" fill="none" xmlns="http://www.w3.org/2000/svg" height="1em" width="1em">
  <path d="M2 6.5C2 5.11929 3.11929 4 4.5 4H15.5C16.8807 4 18 5.11929 18 6.5V13.5C18 14.8807 16.8807 16 15.5 16H10.1213L8.56144 14.4401C8.77418 13.9956 8.91608 13.5107 8.97254 13H12.5C12.7761 13 13 12.7761 13 12.5C13 12.2239 12.7761 12 12.5 12H8.97254C8.91354 11.4663 8.76121 10.9607 8.53224 10.5H14.5C14.7761 10.5 15 10.2761 15 10C15 9.72386 14.7761 9.5 14.5 9.5H7.85416C7.03018 8.57938 5.83275 8 4.5 8C3.57493 8 2.71505 8.27914 2 8.75777V6.5ZM5.5 7C5.22386 7 5 7.22386 5 7.5C5 7.77614 5.22386 8 5.5 8H11.5C11.7761 8 12 7.77614 12 7.5C12 7.22386 11.7761 7 11.5 7H5.5ZM4.5 16C5.2862 16 6.01185 15.7408 6.59615 15.3031L9.14644 17.8535C9.3417 18.0488 9.65828 18.0488 9.85355 17.8535C10.0488 17.6583 10.0488 17.3417 9.85356 17.1464L7.30324 14.596C7.74082 14.0117 8 13.2861 8 12.5C8 10.567 6.433 9 4.5 9C2.567 9 1 10.567 1 12.5C1 14.433 2.567 16 4.5 16ZM4.5 15C3.11929 15 2 13.8807 2 12.5C2 11.1193 3.11929 10 4.5 10C5.88071 10 7 11.1193 7 12.5C7 13.8807 5.88071 15 4.5 15Z" fill="#212121"/>
</svg>

<svg viewBox="0 0 20 20" fill="none" xmlns="http://www.w3.org/2000/svg" height="1em" width="1em">
  <path d="M2 6.5A2.5 2.5 0 0 1 4.5 4h11A2.5 2.5 0 0 1 18 6.5v7a2.5 2.5 0 0 1-2.5 2.5h-5.379l-1.56-1.56A4.47 4.47 0 0 0 8.973 13H12.5a.5.5 0 0 0 0-1H8.973a4.47 4.47 0 0 0-.44-1.5H14.5a.5.5 0 0 0 0-1H7.854A4.489 4.489 0 0 0 4.5 8a4.48 4.48 0 0 0-2.5.758V6.5Zm3.5.5a.5.5 0 0 0 0 1h6a.5.5 0 0 0 0-1h-6Zm-1 9c.786 0 1.512-.26 2.096-.697l2.55 2.55a.5.5 0 1 0 .708-.707l-2.55-2.55A3.5 3.5 0 1 0 4.5 16Zm0-1a2.5 2.5 0 1 1 0-5 2.5 2.5 0 0 1 0 5Z" fill="#212121"/>
</svg>
